!!!COM: Joplin, Scott
!!!CDT: 1868/11/24/-1917/04/01/
!!!OTL: Maple Leaf Rag
!!!ODT: 1899///
!!!OMD: Tempo di marcia
!!!PPR: John Stark & Son
!!!PDT: 1899///
!!!ENC: Craig Stuart Sapp
!!!END: 2004/06/08/
!!!YEC: Copyright 2004 by Craig Stuart Sapp
!!!YEN: United States of America
**kern	**kern	**dynam
*staff2	*staff1	*staff1/2
*Ipiano	*Ipiano	*Ipiano
*>[I,A,A1,A,A2,B,B1,B,B2,C,D,D1,D,D2,E,E1,E,E2]	*>[I,A,A1,A,A2,B,B1,B,B2,C,D,D1,D,D2,E,E1,E,E2]	*>[I,A,A1,A,A2,B,B1,B,B2,C,D,D1,D,D2,E,E1,E,E2]
*>norep[I,A,A2,B,B2,C,D,D2,E,E2]	*>norep[I,A,A2,B,B2,C,D,D2,E,E2]	*>norep[I,A,A2,B,B2,C,D,D2,E,E2]
*>I	*>I	*>I
*clefF4	*clefG2	*clefG2
*k[b-e-a-d-]	*k[b-e-a-d-]	*k[b-e-a-d-]
*M2/4	*M2/4	*M2/4
*MM100	*MM100	*MM100
8EE- 8E-	8r	.
=1!|:	=1!|:	=1!|:
*>A	*>A	*>A
8AA- 8A-L	16r	.
.	16a-LL	f
8E- 8A- 8cJ	16e- 16ee-	.
.	16a-JJ	.
8E- 8A- 8cL	16ccLK	.
.	8e- 8ee-	.
8AAn 8AnJ	.	.
.	16gJk	.
=2	=2	=2
8BB- 8B-L	16e- 16ee-LL	.
.	16g	.
8E- 8G 8d-J	16b-	.
.	[16e- [16ee-JJ	.
8E- 8G 8d-L	4e-] 4ee-]	.
8EE- 8E-J	.	.
=3	=3	=3
8AA- 8A-L	16r	.
.	16a-LL	.
8E- 8A- 8cJ	16e- 16ee-	.
.	16a-JJ	.
8E- 8A- 8cL	16ccLK	.
.	8e- 8ee-	.
8AAn 8AnJ	.	.
.	16gJk	.
=4	=4	=4
8BB- 8B-L	16e- 16ee-LL	.
.	16g	.
8E- 8G 8d-J	16b-	.
.	[16e- [16ee-JJ	.
8E- 8G 8d-L	8e-] 8ee-L]	.
8EE- 8E-J	16r	.
.	16e- 16ee-Jk	.
=5	=5	=5
4FF- 4F-	16r	.
.	16a-LL	.
.	16cc-	.
.	16f- 16ff-JJ	.
8EE- 8E-L	16r	.
.	16e- 16ee-	.
8EE- 8E-J	16r	.
.	16e- 16ee-	.
=6	=6	=6
4FF- 4F-	16r	.
.	16a-LL	.
.	16cc-	.
.	16f- 16ff-JJ	.
8EE- 8E-	16r	.
.	16e- 16ee-	.
8r	8r	.
=7	=7	=7
*^	*	*
16r	8AAA-	2r	p
(16AA-LL	.	.	.
16C-	8r	.	.
16A-JJ)	.	.	.
16r	8AA-	.	.
(16A-LL	.	.	.
16c-	8r	.	.
16a-JJ)	.	.	.
*v	*v	*	*
=8	=8	=8
8A-	16r	.
.	(16a-LL	.
8r	16cc-	.
.	16aa-JJ)	.
8a-	16r	.
.	(16aa-LL	.
8r	16ccc-	.
*clefG2	*	*
.	16aaa-JJ)	.
=9	=9	=9
8dn 8f 8a- 8bnL	8aa- 8aaa-L	mf
8d 8f 8a- 8bJ	8aa- 8aaa-J	<
8d 8f 8a- 8bL	8aa- 8aaa-L	.
8d 8f 8a- 8bJ	16aa- 16aaa-L	.
.	[16aa- [16aaa-JJ	.
=10	=10	=10
8e- 8a- 8ccL	16aa-] 16aaa-LL]	.
.	16eee-	.
8e- 8a- 8ccJ	16fff	.
.	16cccJJ	.
8e- 8a- 8ccL	16eee-LK	.
.	8aa- 8fff	.
8e- 8a- 8ccJ	.	.
.	[16ff- [16aa-Jk	.
=11	=11	=11
8f- 8a- 8cc-L	16ff-] 16aa-LL]	.
.	16bb-	.
8f- 8a- 8cc-J	16ff- 16ccc-	.
.	16aa-JJ	.
8e- 8a- 8ccnL	16bb-LK	.
.	8ee- 8cccn	.
8e- 8a- 8ccJ	.	.
.	16aa-Jk	.
=12	=12	=12
8e- 8a- 8ccL	16ee- 16cccLL	.
.	16aa-J	.
8e- 8g 8dd-J	8ee- 8bb-J	.
8a- 8cc	8ee- 8aa-L	.
8r	16r	.
*clefF4	*	*
.	[16a- [16aa-Jk	.
=13	=13	=13
8Dn 8F 8A- 8BnL	8a-] 8aa-L]	.
8D 8F 8A- 8BJ	8a- 8aa-J	.
8D 8F 8A- 8BL	8a- 8aa-L	.
8D 8F 8A- 8BJ	16a- 16aa-L	.
.	[16a- [16aa-JJ	.
=14	=14	=14
8E- 8A- 8cL	16a-] 16aa-LL]	.
.	16ee-	.
8E- 8A- 8cJ	16a- 16ff	.
.	16ccJJ	.
8E- 8A- 8cL	16ee-LK	.
.	8a- 8ff	.
8E- 8A- 8cJ	.	.
.	[16f- [16a-Jk	.
=15	=15	=15
8F- 8A- 8c-L	16f-] 16a-LL]	.
.	16b-	.
8F- 8A- 8c-J	16f- 16cc-	.
.	16a-JJ	.
8E- 8A- 8cnL	16b-LK	.
.	8e- 8ccn	.
8E- 8A- 8cJ	.	.
.	16a-Jk	.
=16	=16	=16
*>A1	*>A1	*>A1
8E- 8A- 8cL	16e- 16ccLL	.
.	16a-J	.
8E- 8G 8d-J	8e- 8b-J	.
8A- 8cL	8e- 8a-	.
8EE- 8E-J	8r	.
=17:|!	=17:|!	=17:|!
*>A2	*>A2	*>A2
8E- 8A- 8cL	16e- 16ccLL	.
.	16a-J	.
8E- 8G 8d-J	8e- 8b-J	.
8A- 8cL	8e- 8a-	.
8AAn 8AnJ	8r	.
=18!|:	=18!|:	=18!|:
*>B	*>B	*>B
8BB- 8B-L	16r	.
.	16ggLL	f
8E- 8G 8d-J	16ee- 16eee-	.
.	16ggJJ	.
8EE- 8E-L	16bb-LK	.
.	8ddn 8dddn	.
8E- 8G 8d-J	.	.
.	16ggJk	.
=19	=19	=19
8BB- 8B-L	16dd-X 16ddd-XLL	.
.	16gg	.
8E- 8G 8d-J	16bb-	.
.	[16cc [16cccJJ	.
8EE- 8E-L	16cc] 16cccLL]	.
.	16ee-	.
8GG 8GJ	16b- 16bb-	.
.	16ee-JJ	.
=20	=20	=20
8AA- 8A-L	16r	.
.	16ccLL	.
8E- 8A- 8cJ	16a- 16aa-	.
.	16ccJJ	.
8EE- 8E-L	16ee-LK	.
.	8f 8ff	.
8E- 8A- 8cJ	.	.
.	16ccJk	.
=21	=21	=21
8AA- 8A-L	16a- 16aa-LL	.
.	16cc	.
8E- 8A- 8cJ	16ee-	.
.	[16f [16ffJJ	.
8AA- 8A-L	16f] 16ffLL]	.
.	16ccJ	.
8AAn 8AnJ	8f 8ffJ	.
=22	=22	=22
8BB- 8B-L	16r	.
.	16ee-LL	.
8E- 8G 8d-J	16g 16gg	.
.	16b-JJ	.
8EE- 8E-L	16dd-LK	.
.	8f 8ff	.
8E- 8G 8d-J	.	.
.	16ee-Jk	.
=23	=23	=23
8BB- 8B-L	16g 16ggLL	.
.	16b-	.
8E- 8G 8d-J	16dd-	.
.	[16f [16ffJJ	.
8BB- 8B-L	16f] 16ffLL]	.
.	16dd-J	.
8BBn 8BnJ	8f 8ffJ	.
=24	=24	=24
8C 8cL	16r	.
.	16ccLL	.
8E- 8A- 8cJ	16a- 16aa-	.
.	16ccJJ	.
8EE- 8E-L	16ee-LK	.
.	8f 8ff	.
8E- 8A- 8cJ	.	.
.	16ccJk	.
=25	=25	=25
8AA- 8A-L	16a- 16aa-LL	.
.	16cc	.
8E- 8A- 8cJ	16ee-	.
.	[16f [16ffJJ	.
8AA- 8A-L	16f] 16ffLL]	.
.	16ccJ	.
8AAn 8AnJ	8f 8ffJ	.
=26	=26	=26
8BB- 8B-L	16r	.
.	16ggLL	.
8E- 8G 8d-J	16ee- 16eee-	.
.	16ggJJ	.
8EE- 8E-L	16bb-LK	.
.	8ddn 8dddn	.
8E- 8G 8d-J	.	.
.	16ggJk	.
=27	=27	=27
8BB- 8B-L	16dd-X 16ddd-XLL	.
.	16gg	.
8E- 8G 8d-J	16bb-	.
.	[16cc [16cccJJ	.
8EE- 8E-L	16cc] 16cccLL]	.
.	16ee-	.
8GG 8GJ	16b- 16bb-	.
.	16ee-JJ	.
=28	=28	=28
8AA- 8A-L	16r	.
.	16ccLL	.
8E- 8A- 8cJ	16a- 16aa-	.
.	16ccJJ	.
8EE- 8E-L	16ee-LK	.
.	8f 8ff	.
8E- 8A- 8cJ	.	.
.	16ccJk	.
=29	=29	=29
8AA- 8A-L	8a- 8aa-L	.
8AA- 8A-J	8a- 8aa-J	.
8GG 8GL	8g 8ggL	.
8GG- 8G-J	8g- 8gg-J	.
=30	=30	=30
8FF 8FL	16r	.
.	16fLL	.
8FF 8FJ	16an	.
.	16ccJJ	.
8AAn 8AnL	16ffLL	.
.	16cc	.
8AA 8AJ	16a	.
.	16fJJ	.
=31	=31	=31
8BB- 8B-L	16r	.
.	16fLL	.
8F 8B- 8d-J	16b-	.
.	16dd-JJ	.
8F 8B- 8d-L	8f 8ffL	.
8F 8B- 8d-J	8f 8b- 8dd-J	.
=32	=32	=32
8BB- 8F 8B-L	8dn 8f 8a- 8ccL	.
8BB- 8F 8B-J	16r	.
.	16d 16f 16a- 16ccJk	.
8EE- 8E-L	16r	.
.	8d- 8b-L	.
8GG 8GJ	.	.
.	16e-Jk	.
=33	=33	=33
*>B1	*>B1	*>B1
8AA- 8A-L	8c 8a-L	.
8E- 8A- 8cJ	8e- 8ee-J	.
8E- 8A- 8cL	8e- 8ee-L	.
8AAn 8AnJ	8e- 8ee-J	.
=34:|!	=34:|!	=34:|!
*>B2	*>B2	*>B2
8AA- 8A-L	16r	.
.	16a-LL	.
8A- 8c 8e-J	16cc	.
.	16ee-JJ	.
8A- 8c 8e-L	8a- 8aa-	.
8EE- 8E-J	8r	.
=35||	=35||	=35||
*>C	*>C	*>C
8AA- 8A-L	16r	.
.	16a-LL	f
8E- 8A- 8cJ	16e- 16ee-	.
.	16a-JJ	.
8E- 8A- 8cL	16ccLK	.
.	8e- 8ee-	.
8AAn 8AnJ	.	.
.	16gJk	.
=36	=36	=36
8BB- 8B-L	16e- 16ee-LL	.
.	16g	.
8E- 8G 8d-J	16b-	.
.	[16e- [16ee-JJ	.
8E- 8G 8d-L	4e-] 4ee-]	.
8EE- 8E-J	.	.
=37	=37	=37
8AA- 8A-L	16r	.
.	16a-LL	.
8E- 8A- 8cJ	16e- 16ee-	.
.	16a-JJ	.
8E- 8A- 8cL	16ccLK	.
.	8e- 8ee-	.
8AAn 8AnJ	.	.
.	16gJk	.
=38	=38	=38
8BB- 8B-L	16e- 16ee-LL	.
.	16g	.
8E- 8G 8d-J	16b-	.
.	[16e- [16ee-JJ	.
8E- 8G 8d-L	8e-] 8ee-L]	.
8EE- 8E-J	16r	.
.	16e- 16ee-Jk	.
=39	=39	=39
4FF- 4F-	16r	.
.	16a-LL	.
.	16cc-	.
.	16f- 16ff-JJ	.
8EE- 8E-L	16r	.
.	16e- 16ee-	.
8EE- 8E-J	16r	.
.	16e- 16ee-	.
=40	=40	=40
4FF- 4F-	16r	.
.	16a-LL	.
.	16cc-	.
.	16f- 16ff-JJ	.
8EE- 8E-	16r	.
.	16e- 16ee-	.
8r	8r	.
=41	=41	=41
*^	*	*
16r	8AAA-	2r	p
16AA-LL	.	.	.
16C-	8r	.	.
16A-JJ	.	.	.
16r	8AA-	.	.
16A-LL	.	.	.
16c-	8r	.	.
16a-JJ	.	.	.
*v	*v	*	*
=42	=42	=42
8A-	16r	.
.	16a-LL	.
8r	16cc-	.
.	16aa-JJ	.
8a-	16r	.
.	16aa-LL	.
8r	16ccc-	.
*clefG2	*	*
.	16aaa-JJ	.
=43	=43	=43
8dn 8f 8a- 8bnL	8aa- 8aaa-L	mf
8d 8f 8a- 8bJ	8aa- 8aaa-J	<
8d 8f 8a- 8bL	8aa- 8aaa-L	.
8d 8f 8a- 8bJ	16aa- 16aaa-L	.
.	[16aa- [16aaa-JJ	.
=44	=44	=44
8e- 8a- 8ccL	16aa-] 16aaa-LL]	.
.	16eee-	.
8e- 8a- 8ccJ	16aa- 16fff	.
.	16cccJJ	.
8e- 8a- 8ccL	16eee-LK	.
.	8aa- 8fff	.
8e- 8a- 8ccJ	.	.
.	[16ff- [16aa-Jk	.
=45	=45	=45
8f- 8a- 8cc-L	16ff-] 16aa-LL]	.
.	16bb-	.
8f- 8a- 8cc-J	16ff- 16ccc-	.
.	16aa-JJ	.
8e- 8a- 8ccnL	16bb-LK	.
.	8ee- 8cccn	.
8e- 8a- 8ccJ	.	.
.	16aa-Jk	.
=46	=46	=46
8e- 8a- 8ccL	16ee- 16cccLL	.
.	16aa-J	.
8e- 8g 8dd-J	8ee- 8bb-J	.
4e- 4a- 4cc	8ee- 8aa-L	.
*clefF4	*	*
.	16r	.
.	[16a- [16aa-Jk	.
=47	=47	=47
8Dn 8F 8A- 8BnL	8a-] 8aa-L]	.
8D 8F 8A- 8BJ	8a- 8aa-J	.
8D 8F 8A- 8BL	8a- 8aa-L	.
8D 8F 8A- 8BJ	16a- 16aa-L	.
.	[16a- [16aa-JJ	.
=48	=48	=48
8E- 8A- 8cL	16a-] 16aa-LL]	.
.	16ee-	.
8E- 8A- 8cJ	16a- 16ff	.
.	16ccJJ	.
8E- 8A- 8cL	16ee-LK	.
.	8a- 8ff	.
8E- 8A- 8cJ	.	.
.	[16f- [16a-Jk	.
=49	=49	=49
8F- 8A- 8c-L	16f-] 16a-LL]	.
.	16b-	.
8F- 8A- 8c-J	16f- 16cc-	.
.	16a-JJ	.
8E- 8A- 8cnL	16b-LK	.
.	8e- 8ccn	.
8E- 8A- 8cJ	.	.
.	16a-Jk	.
=50	=50	=50
8E- 8A- 8cL	16e- 16ccLL	.
.	16a-J	.
8E- 8G 8d-J	8e- 8b-J	.
8A- 8c	8e- 8a-L	.
8r	8a- 8aa-J	.
=51!|:	=51!|:	=51!|:
*>D	*>D	*>D
!! Trio
*k[b-e-a-d-g-]	*k[b-e-a-d-g-]	*k[b-e-a-d-g-]
*M2/4	*M2/4	*M2/4
8EE- 8E-L	8.a- 8.cc 8.ee- 8.aa-L	.
8A- 8c 8g-J	.	.
.	[16b- [16cc [16ee- [16aa-Jk	.
8GG- 8G-L	16b-] 16cc] 16ee-] 16aa-LL]	.
.	16cc 16ee-J	.
8A- 8c 8g-J	8b-J	.
=52	=52	=52
8FF 8FL	8.a- 8.cc 8.ee- 8.aa-L	.
8A- 8c 8g-J	.	.
.	[16b- [16cc [16ee- [16aa-Jk	.
8EE- 8E-L	16b-] 16cc] 16ee-] 16aa-LL]	.
.	16cc 16ee-	.
8CC 8CJ	16b-	.
.	16cc 16ee-JJ	.
=53	=53	=53
8DD- 8D-L	16a-LL	.
.	16dd-	.
8A- 8d- 8fJ	16b-	.
.	16dd-JJ	.
8AA- 8A-L	16ffLL	.
.	16a-	.
8A- 8d- 8fJ	16dd-	.
.	16ffJJ	.
=54	=54	=54
8FF 8FL	16b-LL	.
.	16dd-	.
8A- 8d- 8fJ	16ff	.
.	[16a-JJ	.
8DD- 8D-L	16a-LL]	.
.	16ff	.
8DDn 8DnJ	16b-	.
.	16ffJJ	.
=55	=55	=55
8EE- 8E-L	8.a- 8.cc 8.ee- 8.aa-L	.
8A- 8c 8g-J	.	.
.	[16b- [16cc [16ee- [16aa-Jk	.
8GG- 8G-L	16b-] 16cc] 16ee-] 16aa-LL]	.
.	16cc 16ee-J	.
8A- 8c 8g-J	8b-J	.
=56	=56	=56
8FF 8FL	8.a- 8.cc 8.ee- 8.aa-L	.
8A- 8c 8g-J	.	.
.	[16b- [16cc [16ee- [16aa-Jk	.
8EE- 8E-L	16b-] 16cc] 16ee-] 16aa-LL]	.
.	16cc 16ee-	.
8CC 8CJ	16b-	.
.	16cc 16ee-JJ	.
=57	=57	=57
8DD- 8D-L	16a-LL	.
.	16dd-	.
8A- 8d- 8fJ	16b-	.
.	16dd-JJ	.
8AA- 8A-L	16ffLL	.
.	16a-	.
8A- 8d- 8fJ	16dd-	.
.	16ffJJ	.
=58	=58	=58
8FF 8FL	16b-LL	.
.	16dd-	.
8A- 8d- 8fJ	16ff	.
.	[16a-JJ	.
8DD- 8D-L	16a-]LL	.
.	16ff	.
8CC 8CJ	16an	.
.	16ee- 16ffJJ	.
=59	=59	=59
8BBB- 8BB-L	8.b- 8.ddn 8.ff 8.bb-L	.
8B- 8dn 8a-J	.	.
.	[16cc [16dd [16ff [16bb-Jk	.
8DDn 8DnL	16cc] 16dd] 16ff] 16bb-LL]	.
.	16dd 16ffJ	.
8B- 8d 8a-J	8ccJ	.
=60	=60	=60
8FF 8FL	8.b- 8.ddn 8.ff 8.bb-L	.
8B- 8dn 8a-J	.	.
.	[16cc [16dd [16ff [16bb-Jk	.
8BB- 8B-L	16cc] 16dd] 16ff] 16bb-LL]	.
.	16dd 16ff	.
8B- 8d 8a-J	16cc	.
.	16dd 16ffJJ	.
=61	=61	=61
8EE- 8E-L	16r	.
.	16ee-LL	.
8B- 8e- 8g-J	16b- 16bb-	.
.	16ee-JJ	.
8GG- 8G-L	16gg-LK	.
.	8cc 8ccc	.
8B- 8e- 8g-J	.	.
.	16ee-Jk	.
=62	=62	=62
8EE- 8E-L	16b- 16bb-LL	.
.	16ee-	.
8B- 8e- 8g-J	16gg-	.
.	[16cc [16cccJJ	.
8GG- 8G-L	16cc] 16cccLL]	.
.	16ee-J	.
8B- 8e- 8g-J	8b- 8bb-J	.
=63	=63	=63
16GnLK	8dd- 8ff- 8ddd-L	.
8B-	.	.
.	8dd- 8ff- 8ddd-J	.
16d-Jk	.	.
16f-LL	8cc 8ff- 8cccL	.
16d-	.	.
16B-	8b- 8ff- 8bb-J	.
16GnXJJ	.	.
=64	=64	=64
8AA- 8A-L	16a- 16ffnXLL	.
.	16dd-	.
8A- 8d- 8fnXJ	16ee-	.
.	[16b- [16gg-JJ	.
8BB-L	16b-] 16gg-LL]	.
.	16b-J	.
8A- 8B- 8dnJ	8a- 8ffJ	.
=65	=65	=65
8E- 8B- 8d-XL	16gn 16ffLL	.
.	16dd-	.
8E- 8B- 8d-J	16ee-	.
.	[16g- [16ffJJ	.
8A- 8cL	16g-] 16ffLL]	.
.	16cc	.
8A- 8cJ	16g- 16ee-	.
.	[16f [16dd-JJ	.
=66	=66	=66
*>D1	*>D1	*>D1
8D- 8d-L	16f] 16dd-LK]	.
.	8a- 8aa-	.
8A- 8d- 8fJ	.	.
.	16ffJk	.
8A- 8d- 8fL	16a- 16aa-LL	.
.	16ff	.
8DDn 8DnJ	16a- 16aa-	.
.	16ffJJ	.
=67:|!	=67:|!	=67:|!
*>D2	*>D2	*>D2
8D- 8d-L	16f] 16dd-LL]	.
.	16dd-	.
8AA- 8A-J	16ff	.
.	16aa-JJ	.
8DD- 8D-L	8dd- 8ddd-	.
8C 8cJ	8r	.
=68||	=68||	=68||
*k[b-e-a-d-]	*k[b-e-a-d-]	*k[b-e-a-d-]
*>E	*>E	*>E
8D- 8d-L	8a- 8aa-L	.
8A- 8d- 8fJ	8a- 8ffJ	.
8A- 8d- 8fL	8a- 8aa-L	.
8C 8cJ	8a- 8ffJ	.
=69	=69	=69
8D- 8d-L	8ff 8aa-L	.
8A- 8d- 8fJ	16ff 16bb-L	.
.	[16ff [16cccJJ	.
8BB- 8B-L	16ff] 16cccLL]	.
.	16bb-	.
8BBn 8BnJ	16aa-	.
.	16ffJJ	.
=70	=70	=70
8C 8cL	16ee-LK	.
.	8ff	.
8A- 8c 8e-J	.	.
.	[16a- [16ccJk	.
8A- 8c 8e-L	4a-] 4cc]	.
8EE- 8E-J	.	.
=71	=71	=71
8AA- 8A-L	16r	.
.	16ee-LL	.
8E- 8A- 8cJ	16a- 16ff	.
.	16ccJJ	.
8EE- 8E-L	16ee-LK	.
.	8a- 8ff	.
8AAn 8AnJ	.	.
.	16ccJk	.
=72	=72	=72
8BB- 8B-L	8g 8ee-L	.
8E- 8G 8d-J	16ffL	.
.	[16g [16b-JJ	.
8EE- 8E-L	4g] 4b-]	.
8AAn 8AnJ	.	.
=73	=73	=73
8BB- 8B-L	16r	.
.	16dd-LL	.
8E- 8G 8d-J	16g 16ff	.
.	16b-JJ	.
8EE- 8E-L	16dd-LK	.
.	8g 8ff	.
8GG 8GJ	.	.
.	[16a- [16ccJk	.
=74	=74	=74
8AA- 8A-L	16a-] 16ccLL]	.
.	16ee-	.
8E- 8A- 8cJ	16a- 16ff	.
.	16ccJJ	.
8EE- 8E-L	16ee-LK	.
.	8a- 8ff	.
8E- 8A- 8cJ	.	.
.	[16a- [16ccJk	.
=75	=75	=75
8AA- 8A-L	16a-] 16ccLL]	.
.	16ee-	.
8E- 8A- 8cJ	16a- 16ff	.
.	16ccJJ	.
8BB- 8B-L	16ee-LK	.
.	8a- 8ff	.
8C 8cJ	.	.
.	16ee-Jk	.
=76	=76	=76
8D- 8d-L	8a- 8aa-L	.
8A- 8d- 8fJ	8a- 8ffJ	.
8A- 8d- 8fL	8a- 8aa-L	.
8C 8cJ	8a- 8ffJ	.
=77	=77	=77
8D- 8d-L	8ff 8aa-L	.
8A- 8d- 8fJ	16ff 16bb-L	.
.	[16ff [16cccJJ	.
8BB- 8B-L	16ff] 16cccLL]	.
.	16bb-	.
8BBn 8BnJ	16aa-	.
.	16ffJJ	.
=78	=78	=78
8C 8cL	8aa-L	.
8A- 8c 8e-J	8ffJ	.
8A- 8c 8e-L	16ee-LK	.
.	8aa-	.
8EE- 8E-J	.	.
.	[16a- [16ccJk	.
=79	=79	=79
8AA- 8A-	16a-] 16ccLL]	.
.	16ee-	.
8E- 8A- 8cJ	16a- 16ff	.
.	16ccJJ	.
8EE- 8E-L	16ee-LK	.
.	8a- 8ff	.
8E- 8A- 8cJ	.	.
.	[16f [16a-Jk	.
=80	=80	=80
8DD- 8D-L	16f] 16a-LL]	.
.	16b-J	.
8DD- 8D-J	8f 8a-J	.
8BBB- 8BB-L	8f- 8a-L	.
8DDn 8DnJ	16f- 16b-L	.
.	[16e- [16a-JJ	.
=81	=81	=81
8EE- 8E-L	16e-] 16a-LL]	.
.	16b-	.
8E- 8A- 8cJ	16e- 16cc	.
.	16a-JJ	.
8EE- 8E-L	16b-LK	.
.	8e- 8cc	.
8EEn 8EnJ	.	.
.	[16dn [16a-Jk	.
=82	=82	=82
8FF 8FL	16dn] 16a-LL]	.
.	16b-	.
8FF 8FJ	16d 16cc	.
.	16a-JJ	.
8GG 8GL	16r	.
.	8d- 8b-L	.
8GG 8GJ	.	.
.	16e-Jk	.
=83	=83	=83
*>E1	*>E1	*>E1
8AA- 8A-L	8c 8a-L	.
8E- 8A- 8cJ	8e- 8ee-J	.
8BB- 8B-L	8e- 8ee-L	.
8C 8cJ	8e- 8ee-J	.
=84:|!	=84:|!	=84:|!
*>E2	*>E2	*>E2
8AA- 8A-L	8c 8a-L	.
8EE- 8E-J	8g 8dd- 8ee-J	.
8AAA- 8AA-	8a- 8cc 8ee- 8aa-	.
==	==	==
*-	*-	*-
!!!hum2abc: --scale 0.8
